X:1
T:Who shall win my lady fair?
T:Robert Lucas De Pearsall (1795-1856)
T:Who shall win my lady fair?
T:© CPDL 2103
T:(Founded upon an ancient ditty in the library of the British Museum)
T:© CPDL 2103
T:© CPDL 2103
T:© CPDL 2103
T:© CPDL 2103
T:© CPDL 2103
T:© CPDL 2103
T:© CPDL 2103
T:© CPDL 2103
T:© CPDL 2103
T:© CPDL 2103
T:© CPDL 2103
T:© CPDL 2103
C:Robert Lucas De Pearsall (1795-1856)
Z:© CPDL 2103
%%score [ 1 2 3 4 ]
L:1/8
Q:1/4=100
M:6/8
K:G
V:1 treble nm="Soprano" snm="S."
V:2 treble nm="Alto" snm="A."
V:3 treble-8 transpose=-12 nm="Tenor" snm="T."
V:4 bass nm="Bass" snm="B."
V:1
!mf!"^Allegretto" G2 F E2 E | F2 D G3- | GGA B2 c | A2 z z!p! Bc | d2 z z AB | c2 z z GA | %6
w: Who shall win my|la- dy fair|_ when the leaves are|green? Who but|I, who but|I, who but|
!<(! (Bc)B (Bc)!<)!B |!>(! e2 B!>)! c3 |!p! B2 A G2 F | G3- G2 z | c2 B A2 G | A3- A2 z | %12
w: I _ should win _ my|la- dy fair|when the leaves are|green, _|when the leaves are|green? _|
 z2 z!f! d2 d | (gf)e d2 c | (BA)G A2 A |!>(! B3-!>)! B2 z | z2!p! ^A B3- | B2 ^A B2 z | %18
w: Who shall|win _ my la- dy|when * the leaves are|green? _|Not you,|_ not you,|
 z2"^cresc." B c2 z | z2 A B2!f! B | c2 c c2 c | c2 c!<)!!<(! c3- |!>(! c3!>)! A3 |[M:2/4] B2 G2 | %24
w: not you,|no, no! The|bra- vest man that|best love can|_ shall|win my|
 A4- | A2 A2 | A2 z2 ||[M:6/8]!p! B>BB B>BB | d>dd c2 z | A2 B cEF | G2 G A2 z | %31
w: la-|* dy|fair.|Dan- dir\-ly, * dan- dir\-ly, *|dan- dir\-ly * dan,|he shall mar- ry her,|he's the man;|
!f!!<(! B>BB B>B!<)!B | d>dd!>)!!>(! c3 |!p! B2 A G2 F | G3- G2 z | c2 B A2 G |"^cresc." A3- A2 z | %37
w: dan- dir- ly, dan- dir- ly,|dan- dir- ly dan,|when the leaves are|green, _|when the leaves are|green, _|
 z2 z!f! d2 d | gfe d2 c | B2 c A2 A |"^dim." (G2 A B2) c | (d3- de)f | g3"^cresc." g2 e | %43
w: he shall|mar- ry my la- dy|when the leaves are|green, _ _ when|leaves _ _ are|green, when the|
 (d2 c B2) c |!f! A3 A3 | G3- G2 z ||!mf! G2 F EEE | F2 D G3- | GGA B2 c | A2 z z!p! Bc | %50
w: leaves, _ _ the|leaves are|green. _|Will you bu- ry my|la- dy fair|_ when the leaves are|green? No, not|
 d2 z z AB | c2 z z GA |!<(! BcB Bc!<)!B |!>(! e2 B!>)! c3 |!p! B2 A G2 F | G3- G2 z | c2 B A2 G | %57
w: I, no, not|I, no, not|I; I won't bu- ry my|la- dy fair.|when the leaves are|green, _|when the leaves are|
 A3- A2 z | z2 z!f! d2 d | gfe d2 c | (BA)G A2 A |!>(! B3- B2!>)! z | z2!p! ^A B3- | B2 ^A B2 z | %64
w: green. _|Will you|bu- ry my la- dy|when * the leaves are|green? _|Will you,|_ will you,|
 z2"^cresc." B c2 z | z2 A B2!f! B | c2 c ccc | c2 c!<)!!<(! c3- |!>(! c3!>)! A3 |[M:2/4] B2 G2 | %70
w: will you?|Why so? I'd|ra- ther mar- ry my|la- dy fair,|_ e'en|though the|
 A4- | A2 A2 | A2 z2 ||[M:6/8]!p! B>BB B>BB | d>dd c2 z | A2 B cEF | G2 G A2 z | %77
w: trees|_ were|bare.|Dan- dir\-ly, * dan- dir\-ly, *|dan- dir\-ly * dan,|she shall mar- ry a|pro- per man;|
!f!!<(! B>BB B>B!<)!B | d>dd!>)!!>(! c3 |!p! B2 A G2 F | G3- G2 z | c2 B A2 G | A3- A2 z | %83
w: dan- dir\-ly, * dan- dir\-ly, *|dan- dir- ly dan,|when the leaves are|green, _|when the leaves are|green, _|
 z2 z!f! d2 d | gfe d2 c | B2 c A2 A |"^dim." (G2 A B2) c | (d3- de)f | g3"^cresc." g2 e | %89
w: he shall|mar- ry my la- dy|when the leaves are|green, _ _ when|leaves _ _ are|green, when the|
 (d2 c B2)!f! c | A3 A3 | G3- !fermata!G2 z |] %92
w: leaves, _ _ the|leaves are|green. _|
V:2
 z6 | z2 z!mf! D2 E | D2 D G2 C | D3- D2 z | z!p! DE F2 z | z CD E2 z |!<(! E3!<)! ^D3 | %7
w: |Who shall|win my la- dy|fair? _|Who but I,|who but I,|who but|
!>(! E2 E E2!>)! E | ^D2 D D3 |!p! (E6- | EF)G F2 E | F3- F2 z |!f! D2 D A2 A | G3- G2 C | %14
w: I should win my|la- dy fair|when|_ _ the leaves are|green? _|Who shall win my|la- * dy|
 D2 G (GF)E |!>(! F3-!>)! F2!p! F | (G3 F2) F | (G3 F2)"^cresc." F | G2 z z2 E | F2 z z2!f! D | %20
w: when the leaves * are|green? _ Say|who, _ say|who, _ say|who? Why|so? The|
 E2 E =F2 F | E2 E!<)!!<(! E3- |!>(! E3!>)! D3 |[M:2/4] DD (G2- | G2 F2 | E2) E2 | F2 z2 || %27
w: bra- vest man that|best love can|_ shall|win my la-||* dy|fair.|
[M:6/8]!p! (G6 | F>)FF E2 z | A2 G EEC | D2 G F2 z |!f!!<(! G>GG G>G!<)!G | G>GG!>)!!>(! E3 | %33
w: Dan-|* dir- ly dan,|he shall mar- ry her,|he's the man;|dan- dir- ly, dan- dir\-ly, *|dan- dir- ly dan,|
!p! ^D3- D2 D | E2 B, E2 z | (EF)G F2 E |"^cresc." F3- F2 z |!f! D2 D AAA | G3- G2 C | D2 G G2 F | %40
w: when _ the|leaves are green,|when _ the leaves are|green, _|he shall mar- ry my|la- * dy|when the leaves are|
"^dim." (GFE D)(GE) | D3 A3 | G3"^cresc." E2 A | (F3 G3- |!f! G3) F3 | G3- G2 z || z6 | %47
w: green, _ _ _ _ when|leaves are|green, when the|leaves _|_ are|green. _||
 z2 z!mf! D2 E | DDD G2 C | D3- D2 z | z!p! DE F2 z | z CD E2 z |!<(! E3!<)! ^D3 | %53
w: Will you|bu- ry my la- dy|fair? _|No, not I,|no, not I,|no, not|
!>(! EEE EE!>)!E | ^D2 D D3 |!p! (E6- | EF)G F2 E | F3- F2 z |!f! D2 D AAA | G3- G2 C | %60
w: I; I won't bu- ry my|la- dy fair|when|_ _ the leaves are|green. _|Will you bu- ry my|la- * dy|
 D2 G (GF)E |!>(! F3- F2!>)!!p! F | (G3 F2) F | (G3 F2)"^cresc." F | G2 z z2 E | F2 z z2!f! D | %66
w: when the leaves * are|green? _ Say|who, _ say|who, _ say|who? No,|no! I'd|
 E2 E =FFF | E2 E!<)!!<(! E3- |!>(! E3!>)! D3 |[M:2/4] DD G2- | (G2 F2 | E2) E2 | F2 z2 || %73
w: ra- ther mar- ry my|la- dy fair,|_ e'en|though the trees|_ _|* were|bare.|
[M:6/8]!p! (G6 | F>)FF E2 z | A2 G EEC | D2 G F2 z |!f!!<(! G>GG G>G!<)!G | G>GG!>)!!>(! E3 | %79
w: Dan\--|* dir\-ly * dan,|she shall mar- ry a|pro- per man;|dan- dir\-ly, * dan- dir\-ly, *|dan- dir- ly dan,|
!p! ^D3- D2 D | E2 B, E2 z | (EF)G F2 E | F3- F2 z |!f! D2 D AAA | G3- G2 C | D2 G G2 F | %86
w: when _ the|leaves are green,|when * the leaves are|green, _|he shall mar- ry my|la- * dy|when the leaves are|
"^dim." (GFE D)(GE) | D3 A3 | G3"^cresc." E A2 | (F3 G3- |!f! G3) F3 | G3- !fermata!G2 z |] %92
w: green, _ _ _ when *|leaves are|green, when the|leaves _|_ are|green. _|
V:3
 z6 | z2 z!mf! B2 c | B2 A (G3 | A2) A B!p!GA | B2 z z FG | A2 z z EF |!<(! G2 G F2!<)! F | %7
w: |Who shall|win my la-|* dy fair? Who but|I, who but|I, who but|I should win my|
!>(! B2 B!>)! A3- | A!p!GF B3- | B2 B e2 d | c3- c2 z |"^cresc." d2 e d2 c | B3!f! d2 D | %13
w: la- dy fair|_ when the leaves,|_ the leaves are|green, _|when the leaves are|green? Who shall|
 B2 c (de)f | g2 d e2 e |!>(! ^d3-!>)! d2!p! d | (e3 ^d2) d | (e3 ^d2)"^cresc." d | e2 z z2 c | %19
w: win my la- * dy,|when the leaves are|green? _ Say|who, _ say|who, _ say|who? Why|
 A2 z z2!f! B | G2 G A2 A | G2 G!<)!!<(! A3- |!>(! A3!>)! F3 |[M:2/4] G2 d2 | ^cc d2- | d2 ^c2 | %26
w: so? The|bra- vest man that|best love can|_ shall|win, shall|win my la-|* dy|
 d2 z2 ||[M:6/8]!p! d>dd e>BB | B>BB G2 z | F2 G ABc | B2 B d2 z |!f!!<(! d>dd e>B!<)!B | %32
w: fair.|Dan- dir\-ly, * dan- dir\-ly, *|dan- dir- ly dan,|he shall mar- ry her,|he's the man;|dan- dir- ly, dan- dir- ly,|
 B>GG!>)!!>(! A3- | A!p!GF B3- | B2 B c2 d | c3- c2 z |"^cresc." d2 e d2 c | B3!f! d2 D | %38
w: dan- dir- ly dan,|* when the leaves,|_ the leaves are|green, _|when the leaves are|green, he shall|
 BBc (de)f | g2 e d2 c |"^dim." (B2 c d2) c | (BAG FG)A | DGB"^cresc." (c3- | cBA G2)!f! e | %44
w: mar- ry my la- * dy|when the leaves are|green, _ _ when|leaves _ _ _ _ are|green, when the leaves,|_ _ _ _ the|
 A3 d3 | B3- B2 z || z6 | z2 z!mf! B2 c | BBA (G3 | A2) A B!p!GA | B2 z z FG | A2 z z EF | %52
w: leaves are|green. _||Will you|bu- ry my la-|* dy fair? No, not|I, no, not|I, no, not|
!<(! GGG FF!<)!F |!>(! B2 B!>)! A3- | A!p!GF B3- | B2 B e2 d | c3- c2 z |"^cresc." d2 e d2 c | %58
w: I; I won't bu- ry my|la- dy fair|_ when the leaves,|_ the leaves are|green, _|when the leaves are|
 B3 d2 D | BBc (de)f | g2 d e2 e |!>(! ^d3- d2!>)!!p! d | (e3 ^d2) d | (e3 ^d2)"^cresc." d | %64
w: green. Will you|bu- ry my la- * dy|when the leaves are|green? _ Say|who, _ say|who, _ say|
 e2 z z2 c | A2 z z2!f! B | G2 G AAA | G2 G!<)!!<(! A3- |!>(! A3!>)! F3 |[M:2/4] G2 d2 | ^cc d2- | %71
w: who? No,|no! I'd|ra- ther mar- ry my|la- dy fair,|_ e'en|though, e'en|though the trees|
 d2 ^c2 | d2 z2 ||[M:6/8]!p! d>dd e>BB | B>BB G2 z | F2 G ABc | B2 B d2 z |!f!!<(! d>dd e>B!<)!B | %78
w: _ were|bare.|Dan- dir\-ly, * dan- dir\-ly, *|dan- dir\-ly * dan,|she shall mar- ry a|pro- per man;|dan- dir\-ly, * dan- dir\-ly, *|
 B>GG!>)!!>(! A3- | A!p!GF B3- | B2 B c2 d | c3- c2 z |"^cresc." d2 e d2 c | B3 d2 D | BBc (de)f | %85
w: dan- dir- ly dan,|_ when the leaves,|_ the leaves are|green, _|when the leaves are|green, he shall|mar- ry my la- * dy|
 g2 e d2 c |"^dim." (B2 c d2) c | (BAG FG)A | DG"^cresc."B (c3- | cBA G2)!f! e | A3 d3 | %91
w: when the leaves are|green, _ _ when|leaves _ _ _ _ are|green, when the leaves,|_ _ _ _ the|leaves are|
 B3- !fermata!B2 z |] %92
w: green. _|
V:4
 z6 | z6 |!mf! G,2 F, E,2 E, | F,2 D, G,2 z | z!p! B,,C, D,2 z | z A,,B,, C,2 z | %6
w: ||Who shall win my|la- dy fair?|Who but I,|who but I,|
!<(! B,,3!<)! A,,3 |!>(! G,,2 G,, A,,2!>)! A,, | B,,2 B,, B,,3 |!p! E,2 D, C,2 B,, | A,,3- A,,2 z | %11
w: who but|I should win my|la- dy fair|when the leaves are|green, _|
"^cresc." D2 C B,2 A, | G,3!f! F,2 F, | (E,D,)C, B,,2 A,, | G,,2 B,, C,2 C, |!>(! B,,6-!>)! | %16
w: when the leaves are|green? Who shall|win _ my la- dy|when the leaves are|green?|
 B,,6- | B,,2 z z2"^cresc." B,, | E,2 z z2 A,, | D,2 z z2!f! G,, | C,2 C, C,2 C, | %21
w: _|* Say|who? Why|so? The|bra- vest man that|
 C,2 C,!<)!!<(! A,,3- |!>(! A,,3!>)! D,3 |[M:2/4] G,,2 B,,2 | A,,A,, D,F, | A,2 A,2 | D,2 z2 || %27
w: best love can|_ shall|win, shall|win, shall win my|la- dy|fair.|
[M:6/8]!p! G,>G,G, E,>E,E, | B,,>B,,B,, C,2 z | (D,C,)B,, A,,G,,A,, | B,,2 E, D,2 z | %31
w: Dan- dir\-ly, * dan- dir\-ly, *|dan- dir\-ly * dan,|he * shall mar- ry her,|he's the man;|
!f!!<(! G,>G,G, E,>E,!<)!E, | B,,>B,,B,,!>(! A,,A,,!>)!A,, |!p! B,,6 | E,2 D, C,2 B,, | %35
w: dan- dir- ly, dan- dir\-ly, *|dan- dir- ly dan, he's the|man,|when the leaves are|
 A,,3- A,,2 z |"^cresc." D2 C B,2 A, | G,3!f! F,2 F, | E,D,C, B,,2 A,, | G,,2 C, D,2 D, | %40
w: green, *|when the leaves are|green, he shall|mar- ry my la- dy|when the leaves are|
"^dim." (G,6 | G,F,E, D,2) C, | B,,2 G,,"^cresc." (C,3 | D,3) E,2!f! C, | D,3 D,3 | G,,3- G,,2 z || %46
w: green,|_ _ _ _ when|leaves are green,|_ when the|leaves are|green. _|
 z6 | z6 |!mf! G,2 F, E,E,E, | F,2 D, G,2 z | z!p! B,,C, D,2 z | z A,,B,, C,2 z | %52
w: ||Will you bu- ry my|la- dy fair?|No, not I,|no, not I,|
!<(! B,,3!<)! A,,3 |!>(! G,,G,,G,, A,,A,,!>)!A,, | B,,2 B,, B,,3 |!p! E,2 D, C,2 B,, | %56
w: no, not|I; I won't bu- ry my|la- dy fair|when the leaves are|
 A,,3- A,,2 z |"^cresc." D2 C B,2 A, | G,3 F,2 F, | E,D,C, B,,2 A,, | G,,2 B,, C,2 C, | %61
w: green, _|when the leaves are|green. Will you|bu- ry my la- dy|when the leaves are|
!>(! B,,6-!>)! | B,,6- | B,,2 z z2"^cresc." B,, | E,2 z z2 A,, | D,2 z z2!f! G,, | C,2 C, C,C,C, | %67
w: green?|_|* Say|who? No,|no! I'd|ra- ther mar- ry my|
 C,2 C,!<)!!<(! A,,3- |!>(! A,,3!>)! D,3 |[M:2/4] G,,2 B,,2 | A,,A,, D,F, | A,2 A,2 | D,2 z2 || %73
w: la- dy fair,|_ e'en|though, e'en|though, e'en though the|trees were|bare.|
[M:6/8]!p! G,>G,G, E,>E,E, | B,,>B,,B,, C,2 z | (D,C,)B,, A,,G,,A,, | B,,2 E, D,2 z | %77
w: Dan- dir\-ly, * dan- dir\-ly, *|dan- dir\-ly * dan,|she _ shall mar- ry a|pro- per man;|
!f!!<(! G,>G,G, E,>E,!<)!E, | B,,>B,,B,,!>(! A,, A,,!>)!A,, |!p! B,,6 | E,2 D, C,2 B,, | %81
w: dan- dir\-ly, * dan- dir\-ly, *|dan- dir- ly dan, pro- per|man,|when the leaves are|
 A,,3- A,,2 z |"^cresc." D2 C B,2 A, | G,3 F,2 F, | E,D,C, B,,2 A,, | G,,2 C, D,2 D, | %86
w: green, _|when the leaves are|green, he shall|mar- ry my la- dy|when the leaves are|
"^dim." (G,6- | G,F,E, D,2) C, | B,,2"^cresc." G,, (C,3 | D,3) E,2!f! C, | D,3 D,3 | %91
w: green,|_ _ _ _ when|leaves are green,|_ when the|leaves are|
 G,,3- !fermata!G,,2 z |] %92
w: green. _|

